svgs/ds_nieuws.svg

<svg xmlns="http://www.w3.org/2000/svg" viewBox="0 0 192 192"><path d="M25.468 166.231c2.996-1.745 3.004-17.974.009-19.65-2.414-1.351-1.982-1.894 2.331-2.928 2.436-.585 3.217-.341 3.217 1.005 0 2.268 1.637 2.279 3.51.022 1.905-2.295 7.53-2.248 9.861.084 1.354 1.354 1.839 4.22 1.839 10.881 0 5.473.554 9.596 1.404 10.446 1.092 1.092.28 1.404-3.653 1.404-4.215 0-4.83-.274-3.691-1.647.847-1.021 1.235-4.911 1.021-10.237l-.346-8.591h-8.19l-.346 8.591c-.214 5.326.173 9.216 1.021 10.237 1.143 1.378.436 1.641-4.334 1.611-4.442-.027-5.249-.299-3.653-1.228Zm29.36-.876c2.638-2.914 2.781-17.499.182-18.497-2.827-1.084-2.028-2.457 1.755-3.012l3.51-.515v9.942c0 7.61.454 10.445 1.936 12.082 1.85 2.045 1.686 2.14-3.691 2.14-5.378 0-5.542-.095-3.692-2.14Zm16.307-.493c-4.965-5.406-4.322-16.318 1.189-20.178 5.869-4.111 13.69-.885 13.69 5.646 0 3.01-.238 3.125-6.471 3.125-7.182 0-8.399 1.175-6.47 6.248 1.609 4.23 6.137 6.263 10.016 4.495 1.609-.733 2.925-.923 2.925-.422 0 4.373-11.115 5.185-14.879 1.086Zm11.369-15.359c0-6.331-7.049-6.852-9.201-.68l-1.207 3.462H77.3c4.7 0 5.204-.27 5.204-2.782Zm11.741 15.729c-.666-1.245-1.211-5.983-1.211-10.53 0-4.731-.5-8.267-1.17-8.267-.643 0-1.17-.526-1.17-1.17 0-.643 1.558-1.17 3.463-1.17h3.462l.34 9.529c.27 7.56.763 9.795 2.387 10.817 1.489.936 2.607.936 4.095 0 2.866-1.8 3.702-18.006.929-18.006-.993 0-1.806-.526-1.806-1.17 0-.643 1.843-1.17 4.095-1.17h4.095v9.982c0 7.793.384 10.129 1.755 10.655 3.157 1.211 1.843 2.763-2.34 2.763-2.405 0-4.095-.579-4.095-1.404 0-1.092-.312-1.092-1.404 0-2.334 2.334-10.026 1.755-11.425-.859Zm27.557-8.555c-1.781-5.95-3.849-11.207-4.596-11.682-.746-.475 1.012-.864 3.908-.864 3.239 0 4.676.374 3.734.971-1.242.787-1.131 2.331.585 8.17 1.163 3.96 2.468 7.201 2.899 7.201.431.001 1.649-2.603 2.706-5.787 1.466-4.412 1.617-6.36.638-8.19-1.191-2.226-.962-2.399 3.144-2.383 2.776.012 3.861.378 2.909.982-1.23.78-1.138 2.338.484 8.172 1.102 3.964 2.379 7.208 2.838 7.208 1.613 0 4.417-13.787 3.077-15.127-.89-.89-.297-1.253 2.049-1.253 2.488 0 3.013.361 2.13 1.463-.645.804-2.66 6.069-4.479 11.7-1.819 5.63-3.912 10.237-4.652 10.237-.739 0-2.083-2.764-2.986-6.142-.903-3.379-2.106-6.143-2.672-6.143-.567 0-2.08 2.764-3.364 6.143-1.284 3.378-2.959 6.142-3.724 6.142-.764 0-2.847-4.868-4.628-10.818Zm30.905 6.145.005-4.102 2.364 3.877c1.889 3.099 3.005 3.804 5.553 3.51 2.499-.288 3.269-1.065 3.56-3.592.327-2.839-.265-3.499-4.936-5.501-5.382-2.307-7.653-6.016-6.124-10.001 1.071-2.79 5.995-4.461 10.6-3.597 3.603.676 4.173 1.225 4.105 3.95-.076 3.046-.125 3.069-1.304.633-2.357-4.873-9.147-4.179-9.147.935 0 1.465 1.792 3.082 5.306 4.79 6.158 2.991 7.639 6.432 4.7 10.918-1.755 2.678-2.597 2.944-8.319 2.631l-6.367-.35.005-4.101Zm-96.55-28.124c-.455-.735-.276-1.887.397-2.56 1.572-1.572 5.238-.201 4.598 1.721-.651 1.955-3.962 2.512-4.995.839Zm76.869-18.12c-2.135-.927-5.389-2.76-7.232-4.072l-3.351-2.386-2.087 3.533c-1.353 2.29-3.027 3.533-4.76 3.533-2.646 0-2.672-.149-2.672-15.21 0-15.146.011-15.21 2.725-15.21 2.147 0 3.325 1.302 5.557 6.14 7.727 16.75 24.68 23.318 35.419 13.723 3.376-3.017 3.683-3.892 3.683-10.497 0-6.776-.251-7.435-4.203-11.058-2.312-2.118-7.314-4.984-11.115-6.368a4683.338 4683.338 0 0 1-11.795-4.311c-12.168-4.471-19.101-13.464-19.101-24.776 0-3.295.56-7.472 1.244-9.283 5.227-13.835 27.285-20.141 42.486-12.145l6.528 3.434 2.445-3.434c1.345-1.888 3.199-3.434 4.12-3.434 1.371 0 1.676 2.869 1.676 15.795 0 18.92-1.255 20.214-7.525 7.764-2.224-4.417-5.677-9.405-7.673-11.084-7.661-6.446-19.919-6.787-25.984-.723-2.656 2.656-3.278 4.316-3.278 8.75 0 8.202 4.216 11.763 21.319 18.009 21.807 7.965 27.365 14.364 26.455 30.46-.657 11.639-6.65 19.212-18.406 23.259-5.46 1.879-19.756 1.64-24.475-.409Zm-116.041-2.089c0-2.233.759-3.012 3.46-3.553 6.603-1.32 7.07-3.976 7.07-40.231 0-35.799-.191-36.843-7.021-38.343-2.964-.651-3.509-1.325-3.509-4.344v-3.574l24.277.624c26.68.686 32.869 1.859 42.683 8.09 10.728 6.812 17.279 20.436 17.279 35.936 0 20.775-8.815 35.885-25.563 43.82l-7.782 3.687-25.447.374-25.447.374Zm48.554-6.546C76.75 102.742 82.6 91.984 83.42 75.061c1-20.619-3.922-32.596-15.967-38.853-5.209-2.707-7.744-3.261-14.917-3.261h-8.641v77.219l8.482-.026c5.756-.017 9.987-.723 13.162-2.197Z"/></svg>

<svg
    xmlns="http://www.w3.org/2000/svg"
    viewBox="0 0 192 192"
    id="vector">
    <g id="group">
        <path
            id="path_3"
            d="M 25.468 166.231 C 28.464 164.486 28.472 148.257 25.477 146.581 C 23.063 145.23 23.495 144.687 27.808 143.653 C 30.244 143.068 31.025 143.312 31.025 144.658 C 31.025 146.926 32.662 146.937 34.535 144.68 C 36.44 142.385 42.065 142.432 44.396 144.764 C 45.75 146.118 46.235 148.984 46.235 155.645 C 46.235 161.118 46.789 165.241 47.639 166.091 C 48.731 167.183 47.919 167.495 43.986 167.495 C 39.771 167.495 39.156 167.221 40.295 165.848 C 41.142 164.827 41.53 160.937 41.316 155.611 L 40.97 147.02 L 32.78 147.02 L 32.434 155.611 C 32.22 160.937 32.607 164.827 33.455 165.848 C 34.598 167.226 33.891 167.489 29.121 167.459 C 24.679 167.432 23.872 167.16 25.468 166.231 Z M 54.828 165.355 C 57.466 162.441 57.609 147.856 55.01 146.858 C 52.183 145.774 52.982 144.401 56.765 143.846 L 60.275 143.331 L 60.275 153.273 C 60.275 160.883 60.729 163.718 62.211 165.355 C 64.061 167.4 63.897 167.495 58.52 167.495 C 53.142 167.495 52.978 167.4 54.828 165.355 Z M 71.135 164.862 C 66.17 159.456 66.813 148.544 72.324 144.684 C 78.193 140.573 86.014 143.799 86.014 150.33 C 86.014 153.34 85.776 153.455 79.543 153.455 C 72.361 153.455 71.144 154.63 73.073 159.703 C 74.682 163.933 79.21 165.966 83.089 164.198 C 84.698 163.465 86.014 163.275 86.014 163.776 C 86.014 168.149 74.899 168.961 71.135 164.862 Z M 82.504 149.503 C 82.504 143.172 75.455 142.651 73.303 148.823 L 72.096 152.285 L 77.3 152.285 C 82 152.285 82.504 152.015 82.504 149.503 Z M 94.245 165.232 C 93.579 163.987 93.034 159.249 93.034 154.702 C 93.034 149.971 92.534 146.435 91.864 146.435 C 91.221 146.435 90.694 145.909 90.694 145.265 C 90.694 144.622 92.252 144.095 94.157 144.095 L 97.619 144.095 L 97.959 153.624 C 98.229 161.184 98.722 163.419 100.346 164.441 C 101.835 165.377 102.953 165.377 104.441 164.441 C 107.307 162.641 108.143 146.435 105.37 146.435 C 104.377 146.435 103.564 145.909 103.564 145.265 C 103.564 144.622 105.407 144.095 107.659 144.095 L 111.754 144.095 L 111.754 154.077 C 111.754 161.87 112.138 164.206 113.509 164.732 C 116.666 165.943 115.352 167.495 111.169 167.495 C 108.764 167.495 107.074 166.916 107.074 166.091 C 107.074 164.999 106.762 164.999 105.67 166.091 C 103.336 168.425 95.644 167.846 94.245 165.232 Z M 121.802 156.677 C 120.021 150.727 117.953 145.47 117.206 144.995 C 116.46 144.52 118.218 144.131 121.114 144.131 C 124.353 144.131 125.79 144.505 124.848 145.102 C 123.606 145.889 123.717 147.433 125.433 153.272 C 126.596 157.232 127.901 160.473 128.332 160.473 C 128.763 160.474 129.981 157.87 131.038 154.686 C 132.504 150.274 132.655 148.326 131.676 146.496 C 130.485 144.27 130.714 144.097 134.82 144.113 C 137.596 144.125 138.681 144.491 137.729 145.095 C 136.499 145.875 136.591 147.433 138.213 153.267 C 139.315 157.231 140.592 160.475 141.051 160.475 C 142.664 160.475 145.468 146.688 144.128 145.348 C 143.238 144.458 143.831 144.095 146.177 144.095 C 148.665 144.095 149.19 144.456 148.307 145.558 C 147.662 146.362 145.647 151.627 143.828 157.258 C 142.009 162.888 139.916 167.495 139.176 167.495 C 138.437 167.495 137.093 164.731 136.19 161.353 C 135.287 157.974 134.084 155.21 133.518 155.21 C 132.951 155.21 131.438 157.974 130.154 161.353 C 128.87 164.731 127.195 167.495 126.43 167.495 C 125.666 167.495 123.583 162.627 121.802 156.677 Z M 152.707 162.822 L 152.712 158.72 L 155.076 162.597 C 156.965 165.696 158.081 166.401 160.629 166.107 C 163.128 165.819 163.898 165.042 164.189 162.515 C 164.516 159.676 163.924 159.016 159.253 157.014 C 153.871 154.707 151.6 150.998 153.129 147.013 C 154.2 144.223 159.124 142.552 163.729 143.416 C 167.332 144.092 167.902 144.641 167.834 147.366 C 167.758 150.412 167.709 150.435 166.53 147.999 C 164.173 143.126 157.383 143.82 157.383 148.934 C 157.383 150.399 159.175 152.016 162.689 153.724 C 168.847 156.715 170.328 160.156 167.389 164.642 C 165.634 167.32 164.792 167.586 159.07 167.273 L 152.703 166.923 L 152.708 162.822 Z M 56.157 134.698 C 55.702 133.963 55.881 132.811 56.554 132.138 C 58.126 130.566 61.792 131.937 61.152 133.859 C 60.501 135.814 57.19 136.371 56.157 134.698 Z M 133.026 116.578 C 130.891 115.651 127.637 113.818 125.794 112.506 L 122.443 110.12 L 120.356 113.653 C 119.003 115.943 117.329 117.186 115.596 117.186 C 112.95 117.186 112.924 117.037 112.924 101.976 C 112.924 86.83 112.935 86.766 115.649 86.766 C 117.796 86.766 118.974 88.068 121.206 92.906 C 128.933 109.656 145.886 116.224 156.625 106.629 C 160.001 103.612 160.308 102.737 160.308 96.132 C 160.308 89.356 160.057 88.697 156.105 85.074 C 153.793 82.956 148.791 80.09 144.99 78.706 C 141.188 77.322 135.881 75.383 133.195 74.395 C 121.027 69.924 114.094 60.931 114.094 49.619 C 114.094 46.324 114.654 42.147 115.338 40.336 C 120.565 26.501 142.623 20.195 157.824 28.191 L 164.352 31.625 L 166.797 28.191 C 168.142 26.303 169.996 24.757 170.917 24.757 C 172.288 24.757 172.593 27.626 172.593 40.552 C 172.593 59.472 171.338 60.766 165.068 48.316 C 162.844 43.899 159.391 38.911 157.395 37.232 C 149.734 30.786 137.476 30.445 131.411 36.509 C 128.755 39.165 128.133 40.825 128.133 45.259 C 128.133 53.461 132.349 57.022 149.452 63.268 C 171.259 71.233 176.817 77.632 175.907 93.728 C 175.25 105.367 169.257 112.94 157.501 116.987 C 152.041 118.866 137.745 118.627 133.026 116.578 Z M 16.985 114.489 C 16.985 112.256 17.744 111.477 20.445 110.936 C 27.048 109.616 27.515 106.96 27.515 70.705 C 27.515 34.906 27.324 33.862 20.494 32.362 C 17.53 31.711 16.985 31.037 16.985 28.018 L 16.985 24.444 L 41.262 25.068 C 67.942 25.754 74.131 26.927 83.945 33.158 C 94.673 39.97 101.224 53.594 101.224 69.094 C 101.224 89.869 92.409 104.979 75.661 112.914 L 67.879 116.601 L 42.432 116.975 L 16.985 117.349 Z M 65.539 107.943 C 76.75 102.742 82.6 91.984 83.42 75.061 C 84.42 54.442 79.498 42.465 67.453 36.208 C 62.244 33.501 59.709 32.947 52.536 32.947 L 43.895 32.947 L 43.895 110.166 L 52.377 110.14 C 58.133 110.123 62.364 109.417 65.539 107.943 Z"
            fill="#000000"
            stroke-width="12"/>
    </g>
</svg>
